X:1
T:43
T:43
T:Études enfantines op. 37
T:Henry Lemoine
C:Henry Lemoine
%%score { ( 1 3 ) | 2 }
L:1/8
Q:1/4=118
M:2/4
K:Eb
V:1 treble nm="Piano" snm="Pno."
V:3 treble 
V:2 treble 
V:1
"^Allegro moderato"!mf!"_legato" (!1!c/!<(!g/^f/g/ !3!e/c/d/e/!<)! |!>(! !2!!4![d=f]4)!>)! | %2
!<(! (.!3!e.f !5!g!5!a/!<)!f/ |!>(! !>!!3![ce]2 !2![=Bd])!>)! z | %4
!mf!"_legato" (!1!c/!<(!g/^f/g/ !3!e/c/d/e/!<)! |!>(! !2!!4![d=f]4)!>)! | %6
!p! (!3!f/e/)(!3!e/d/) (!3!d/c/)(!3!c/=B/) | (!>!=B2 .c) z || %8
!mf! (!1!d/!5!g/^f/g/ !4!=f/)g/(!2!d/g/ |!<(! e/g/!1!=B/!<)!!>(!!5!g/ !2!c/!5!g/e/!>)!!5!g/ | %10
!mf! !1!d/!5!g/^f/g/ !4!=f/)g/(!2!d/g/ | e/g/=B/g/ c/e/d/c/ |!p! !2!_B3) !3!B | %13
!<(! (!3!B/c/B/=A/ !3!B/!5!e/!1!G/!4!c/!<)! |!mp! !3!B3) B |!<(! (!3!B/c/B/=A/ B/!1!c/d/e/!<)! | %16
!mf! !2!d/!1!c/!2!=B/!1!c/ !3!=e/g/f/_e/ |!<(! !2!d/!3!e/!1!f/g/ a/b/!1!c'/d'/!<)! | %18
!f!!>(! .e'/) z/ .[ac']/ z/ .[gb]/!>)! z/ .[Ad]/ z/ | (!>![Ad]2 .[Ge]) z | %20
!mf!!>(! (!3!e/d/e/f/ e/d/e/!>)!_d/ | !1!c/!2!=B/!1!c/=d/ e/!1!d/!2!e/!3!=e/ | %22
!>(! (!4!f/)=e/f/g/ f/c/!4!f/_e/!>)! | d/c/d/e/ f/!1!=e/!2!f/^f/ | %24
!f!!>(! (!4!g/)!2!^f/g/a/ !5!g/d/g/=f/!>)! |!<(! e/f/e/d/ e/)g/(d/g/!<)! | %26
"_poco rallentando" c/g/e/^f/ d/f/c/f/ |!>(! =B/d/g/d/ B)!>)! z | %28
!mf!"_legato""^in tempo" (!1!c/!<(!g/^f/g/ !3!e/c/d/e/!<)! |!>(! !2!!4![d=f]4)!>)! | %30
!<(! (.!3!e.f !5!g!5!a/!<)!f/ |!>(! !>!!3![ce]2 !2![=Bd])!>)! z | %32
!mf!"_legato" (!1!c/!<(!g/^f/g/ !3!e/c/d/e/!<)! |!>(! !2!!4![d=f]4)!>)! | %34
!p! (!3!f/"_poco ritenuto"e/)(!3!e/d/) (!3!d/c/)(!3!c/=B/) | (!>!=B2 .c) z |] %36
V:2
 [CE]2 z2 | (!5!G,/!1!D/^C/D/ =B,/G,/=A,/B,/ | .!2!C).!1!D .!3!E(F | G/^F/G/F/ G/)(G,/G/=F/ | %4
 [CE]2) z2 | (!5!G,/!1!D/^C/D/ =B,/G,/=A,/B,/ | %6
 .!2!C)[K:bass]!5!!3!!1![F,_A,D] !5!!2!!1![G,CE][G,DF] | (!>![G,DF]2 .[CE]) z || %8
 !5!!3![G,=B,]3 [G,B,] | [G,C][G,D] [G,E]!5!!2![G,C] | [G,=B,]3[K:treble] !5!!1![=B,G] | %11
 !4!!1![CG]!3!!1![DG] !2!!1![EG] z | !3!D/!1!F/=E/F/ D/F/_B,/!3!D/ | !2!_E3 E | %14
 (!3!D/!1!F/=E/F/ D/F/_B,/!3!D/ | !2!_E3)[K:bass] !5!!3![G,B,] | !tenuto![A,C]4 | !tenuto![A,B,]4 | %18
 .[G,B,]/ z/ .A,/ z/ .B,/ z/[K:treble] .!5!!1![B,F]/ z/ | (!>![B,F]2 .E) z | (!4!!1![EG]4 | %21
 .!2!A) z z2 | (!4!!1![F=A]4 | .!2!B) z z2 | (!4!!2![G=B]4 | c3 _B | _A4 | !1!G2-) G/(=F/E/D/ | %28
 [CE]2) z2 | (!5!G,/!1!D/^C/D/ =B,/G,/=A,/B,/ | .!2!C).!1!D .!3!E(F | G/^F/G/F/ G/)(G,/G/=F/ | %32
 [CE]2) z2 | (!5!G,/!1!D/^C/D/ =B,/G,/=A,/B,/ | %34
 .!2!C)[K:bass]!5!!3!!1![F,_A,D] !5!!2!!1![G,CE][G,DF] | (!>![G,DF]2 .[CE]) z |] %36
V:3
 x4 | x4 | e/c/f/c/ g/cd/ | x4 | x4 | x4 | x4 | x4 || d3 d | e=B ce | d3 d | e=B c z | z3 !2!A | %13
 G3 G | !2!_A3 A | G2 z2 | x4 | x4 | x4 | x4 | x4 | x4 | x4 | x4 | x4 | x2 ed | ce dc | =B2 B z | %28
 x4 | x4 | e/c/f/c/ g/cd/ | x4 | x4 | x4 | x4 | x4 |] %36

